Modules/BetterCms.Module.Root/Scss/assets/icons/editor-undo.svg

<svg height="14" width="16" xmlns="http://www.w3.org/2000/svg" viewBox="0 0 16 14"><path fill="#303646" fill-rule="evenodd" d="m15.8 14c.06 0 .11-.02.15-.07.04-.04.06-.1.05-.15-1-6.01-6.34-10.37-12.71-10.37h-.14l2.08-1.99c.16-.16.25-.37.25-.59 0-.22-.09-.43-.25-.59-.17-.15-.39-.24-.62-.24-.23 0-.45.09-.61.24l-3.94 3.87c-.08.08-.08.2 0 .27l3.94 3.87c.16.16.38.25.61.25.23 0 .45-.09.62-.25.16-.15.25-.36.25-.58 0-.23-.09-.43-.25-.59l-2.11-2.01.2-.01c5.4 0 10 3.7 10.94 8.78.01.09.1.16.19.16h1.35"/></svg>

<?xml version="1.0" encoding="utf-8"?>
<!-- Generator: Avocode 2.4.5 - http://avocode.com -->
<svg height="14" width="16" xmlns:xlink="http://www.w3.org/1999/xlink" xmlns="http://www.w3.org/2000/svg" viewBox="0 0 16 14">
    <path fill="#303646" fill-rule="evenodd" d="M 15.8 14 C 15.86 14 15.91 13.98 15.95 13.93 C 15.99 13.89 16.01 13.83 16 13.78 C 15 7.77 9.66 3.41 3.29 3.41 L 3.15 3.41 L 5.23 1.42 C 5.39 1.26 5.48 1.05 5.48 0.83 C 5.48 0.61 5.39 0.4 5.23 0.24 C 5.06 0.09 4.84 0 4.61 0 C 4.38 0 4.16 0.09 4 0.24 L 0.06 4.11 C -0.02 4.19 -0.02 4.31 0.06 4.38 L 4 8.25 C 4.16 8.41 4.38 8.5 4.61 8.5 C 4.84 8.5 5.06 8.41 5.23 8.25 C 5.39 8.1 5.48 7.89 5.48 7.67 C 5.48 7.44 5.39 7.24 5.23 7.08 L 3.12 5.07 L 3.32 5.06 C 8.72 5.06 13.32 8.76 14.26 13.84 C 14.27 13.93 14.36 14 14.45 14 L 15.8 14 Z M 15.8 14" />
</svg>
